!!!COM: F. Chopin
!!!OTL: 1. Nocturne
!!!OPS: Op. 32
!!!OPR: Deux Nocturnes
!!!OCL: Maurice Schlesinger
!!!NIFC-rismID: 1001032945
!!!OMD: Andante sostenuto.
!!!system-decoration: {(s1,s2)}
**kern	**kern	**dynam
*part1	*part1	*part1
*staff2	*staff1	*
*clefF4	*clefG2	*
*k[f#c#g#d#a#]	*k[f#c#g#d#a#]	*
*M4/4	*M4/4	*
*met(c)	*met(c)	*
=1-	=1-	=1-
!LO:TX:a:t=dolce.	!	!
*ped	*	*
(8BBB/L	(>4dd#	.
8f#\	.	.
8F#	8.eeL	.
8f#J	.	.
*Xped	*	*
.	16dd#Jk	.
8eL 8A#	4cc#	.
8f#	.	.
8F#	4dd#	.
8f#J	.	.
=2	=2	=2
*ped	*	*
8d#L 8B	[4b	.
8f#	.	.
8F#	16bLL]	.
.	16dd#	.
8f#J	16bb	.
*Xped	*	*
.	16gg#JJ	.
8c#L 8A#	4.ff#	.
8f#	.	.
8F#	.	.
8f#J	8ee	.
=3	=3	=3
*ped	*	*
8BBL)	8dd#L)	.
(8f#	(24dd#L	.
.	24ee	.
.	24ff#J	.
8F#	8.ee	.
8f#J	.	.
.	16dd#Jk	.
8eL 8A#	4cc#	.
*Xped	*	*
8f#	.	.
8F#	8.dd#L	.
8f#J)	.	.
.	16a#Jk)	.
=4	=4	=4
!!linebreak:original
8d#L 8B	(16bLL	.
.	16cc#	.
8f#	16bM	.
.	16a#XJJ	.
8F#	16bLL	.
.	16dd#	.
8f#J	16bb	.
.	16gg#JJ	.
8c#L 8A#	4.ff#	.
8f#	.	.
8F#	.	.
8f#J	8ee)	.
=5	=5	=5
*ped	*	*
(>8BBL	(4dd#	<
8F#	.	.
8An	8.cc##XL	.
8d#J)	.	.
*Xped	*	*
.	16dd#Jk	.
*ped	*	*
(>8AA#XL	4ee#X	.
8G#	.	.
.	16qee#/LL	[
.	16qgg#/JJ	.
8A#X	8.ff#L	.
8c##XJ)	.	.
*Xped	*	*
.	16ee#Jk	.
=6	=6	=6
*ped	*	*
(>8DD#L	4dd#	.
8F#	.	.
8A#	4a#y\	.
8d#J)	.	.
*Xped	*	*
!	!LO:TX:t=stretto.	!
*ped	*	*
(>8EEL	4cc#	f
8E	.	.
8G#	8.g#)	.
16c#Jk)	.	.
*Xped	*	*
16r;	16r;	.
=7	=7	=7
!!linebreak:original
*ped	*	*
8GGn'L	8r	.
(>8E	16r	p
!	!LO:TX:a:t=delicatiss.	!
.	(16b	.
*	*Xtuplet	*
8B	20bLL	.
.	20cc#	.
!	!LO:TX:t=poco ritenuto.	!
.	20b	.
8eJ)	.	.
*Xped	*	*
.	20a#X	.
.	20bJJ	.
*	*tuplet	*
*ped	*	*
8FF#'L	8dd#	.
(>8F#	4dd#	.
8A#X	.	.
8eJ)	8cc#	.
*Xped	*	*
=8	=8	=8
!	!LO:TX:t=In Tempo.	!
*^	*^	*
*	*^	*	*	*
8ryy	8BB'>L	8ryy	4ryy	2b)	.
(4F#	8F#	4F#\	.	.	.
.	8fn 8dn	.	(4gg#	.	.
8ryy	8F#XJ	4F#X/	.	.	.
4e	8eL	.	4cc#	4a#	.
.	8F#	4F#/	.	.	.
4B#X	8B#X	.	4dd#	4an	.
.	8F#J	8ryy	.	.	.
=9	=9	=9	=9	=9	=9
.	.	.	8qff#/	.	.
8ryy	8c#L	8ryy	4ee	2a#X	.
8ryy	8F#	2F#/	.	.	.
4ryy	8f#	.	8dd#L	.	]
.	8eJ	.	8cc#J	.	.
4d#	8d#L	.	4b	4f#	]
.	8F#	4F#/	.	.	.
4e#X	8e#X	.	4cc#	4g#	.
.	8F#J	8ryy	.	.	.
=10	=10	=10	=10	=10	=10
!!linebreak:original
4f#	8f#L	8ryy	4a#	4a#)	.
.	8F#	4F#/	.	.	.
4e#X	8e#X	.	(>4gg#	4b	.
.	8F#J	4F#/	.	.	.
4en	8enL	.	4cc#	4a#	.
.	8F#	4F#/	.	.	.
4B#X	8B#X	.	4dd#	4an	.
.	8F#J	8ryy	.	.	.
=11	=11	=11	=11	=11	=11
.	.	.	8qff#/	.	.
4c#	8c#L	8ryy	4ee	2a#X	.
.	8F#	4F#/	.	.	.
2.ryy	8f#	.	8dd#L	.	.
.	8eJ 8F##X	8ryy	8cc#J	.	.
.	8d#L 8G#	2ryy	4b	4g#	.
.	8B	.	.	.	.
.	8E	.	4cc# 4g# 4c#	4ryy	.
.	8BJ)	.	.	.	.
*	*v	*v	*	*	*
=12	=12	=12	=12	=12
*	*	*	*^	*
*ped	*	*	*	*	*
4ryy	8FF#L	4ryy	4cc#:/ 4f#:/ 4c#:/	4ryy	.
.	(>8A#X	.	.	.	.
*Xped	*	*	*	*	*
4B	8B	4dd#	2e	8.e/L	.
.	8F#J	.	.	.	.
.	.	.	.	16g#/Jk	.
2ryy	8A#	4cc#	.	2f#/	.
.	4F#	.	.	.	.
.	.	4ryy	4cc##X/ 4a# 4e	.	.
.	8F#)	.	.	.	.
*v	*v	*	*	*	*
*	*v	*v	*v	*
=13	=13	=13
.	8qd#/	]
.	8qd#/L	.
.	8qf#/	.
.	>8qb/J)	.
*ped	*	*
8BB'L	(4dd#)	.
(>8F#	.	.
8f#	8.eeL	.
8F#J	.	.
*Xped	*	*
.	16dd#Jk	.
8eL 8A#	4cc#	.
8F#	.	.
8f#	4dd#)	.
8F#J	.	.
=14	=14	=14
!!linebreak:original
8d#L 8B	([4b^<	.
8F#	.	.
8f#	16bLL]	.
.	16dd#	.
8F#J	16bb	.
.	16gg#JJ	.
8c#L 8A#	4.ff#	.
8F#	.	.
8f#	.	.
8F#J)	8ee)	.
=15	=15	=15
*ped	*	*
8BB'L	(8dd#L	.
(8f#	24dd#L	.
.	24ee	.
.	24ff#J	.
8F#	8.ee	.
8f#J	.	.
*Xped	*	*
.	16dd#Jk	.
8eL 8A#	4cc#	.
8f#	.	.
8F#	8.dd#L	.
8f#J)	.	.
.	16a#XJk)	.
=16	=16	=16
*ped	*	*
8d#L 8B	(>32bLLL	>
.	32cc#	.
.	32b	.
.	32a#XJJJ	.
(8f#	32bLLL	]
.	32dd#	.
.	32bb	.
.	32gg#JJJ	.
8F#	16ff#)	.
.	(>32bbMLLL	pp
!	!LO:TX:t=delicatiss.	!
.	32aa#JJJ	.
8f#J	32bbLLL	.
*Xped	*	*
.	32ddd#	.
.	32bbb	.
.	32ggg#JJJ	.
8c#L 8A#	8fff#')	.
8f#	4r	.
8F#	.	.
8f#J)	8ee	.
=17	=17	=17
!!pagebreak:original
*ped	*	*
(>8BBL	(>4dd#	<
8F#	.	.
8An	8.cc##XL	.
8d#J)	.	.
*Xped	*	*
.	16dd#Jk	.
*ped	*	*
(>8AA#XL	4ee#X	.
8G#	.	.
.	16qee#/LL	.
.	16qgg#/JJ	.
8A#X	8.ff#L	.
8c##XJ)	.	.
*Xped	*	*
.	16ee#Jk	[
=18	=18	=18
*ped	*	*
(>8DD#L	4dd#	.
8F#	.	.
8A#	4a#\	.
8d#J)	.	.
*Xped	*	*
!	!LO:TX:t=stretto.	!
(>8EEL	4cc#	f
8E	.	.
8G#	8.g#)	.
16c#Jk)	.	.
*Xped	*	*
16r;	16r;	.
=19	=19	=19
*ped	*	*
(8GGGn'L	8r	.
8E	16r	.
.	(>16b	p
*	*Xtuplet	*
8B	20bLL	.
.	20cc#	.
.	20b	.
8eJ)	.	.
*Xped	*	*
.	20a#	.
.	20bJJ	.
*	*tuplet	*
*ped	*	*
(8FFF#'L	8dd#)	.
8F#	([4dd#	.
8A#	.	.
8eJ)	24dd#LL]	.
*Xped	*	*
.	24cc#	.
.	24bJJ	.
=20	=20	=20
!!linebreak:original
*ped	*	*
8BBBL	4b)	.
(>8F#	.	.
!	!LO:TX:t=in Tempo.	!
!	!LO:TX:a:t=Tranquillo.	!
8f# 8d#	(4ff#	.
8F#J	.	.
8eL 8c#	4ee	.
8F#	.	.
8d# 8B	4dd#)	.
8F#J)	.	.
*Xped	*	*
=21	=21	=21
*ped	*	*
!	!LO:N:vis=4	!
(>8FF#L\	(2cc#	.
8C#\	.	.
8A#\ 8F#\	.	.
8C#J\	.	.
8AA#L\	8dd#L	>
8C#\	8cc#	.
8c#\ 8F#\	8b	.
8C#J)\	8a#J	]
*Xped	*	*
=22	=22	=22
*	*^	*
*ped	*	*	*
8CC#'L\	4b	8f#L	>
(>8C#\	.	8e#X	.
8B\ 8E#X\	4b	8d#	.
8C#J)\	.	8c#J	]
*Xped	*	*	*
*ped	*	*	*
(>8FF#L\	4b 4g#	2r	.
8C#\	.	.	.
8A#\ 8F#\	4a# 4f#)	.	.
8C#J)\	.	.	.
*Xped	*	*	*
*	*v	*v	*
=23	=23	=23
*ped	*	*
(>8FF#L\	8r	.
8C#\	(>8cc#ML\ 8a#\	<
8A#\ 8F#	8b#X\ 8g##X\	.
8C#J)	8cc#J\ 8a#\	[
(>8FF#L\	8ff#'L) 8a#	.
8C#\	16r	.
.	16cc#Jk 16a#	.
8c#\	12cc#L\ (>12a#\	>
.	12b#\ 12g#X\	.
8C#J)\	.	.
*Xped	*	*
.	12a#J 12f#)	]
=24	=24	=24
!!linebreak:original
*ped	*	*
(>8CC#L\	8b'L/ 8f#/	.
8C#\	16r	.
.	16bJk (>16e#X	.
*	*Xtuplet	*
8B 8E#X\	12bL 12e#	.
.	12b 12d#	.
8C#J)\	.	.
*Xped	*	*
.	12bJ 12c#	.
*	*tuplet	*
*ped	*	*
(>8FF#L\	4b 4g#	.
8C#\	.	.
8A#	4a# 4f#)	.
8C##XJ)\	.	.
*Xped	*	*
=25	=25	=25
*ped	*	*
(>8DD#L\	4r	.
8AA#\	.	.
8A#\ 8F#\ 8D#\	8r	.
8AA#J)\	(>8a# 8f#	.
(8DD#L\	8bL 8g#	>
8AA#\	8a# 8f#	.
8A#\	8g# 8e#X	.
8AA#J)\	8f#J 8d#)	]
*Xped	*	*
=26	=26	=26
*	*^	*
*ped	*	*	*
(8AAA#L\	(4e#X 4g#	8d#L	.
8AA#\	.	8c##X	.
8E#X\	4g#	8d# 8B	.
>8G#J)\	.	8c##J 8A#	.
*Xped	*	*	*
*ped	*	*	*
(8DD#L\	4g# 4e#	2A#	.
8AA#\	.	.	.
8F#\	4f# 4d#)	.	.
8D#J)\	.	.	.
*Xped	*	*	*
*	*v	*v	*
=27	=27	=27
*ped	*	*
(>8GG##XL	8r	.
8D#	(16d##XLL\	.
.	16e#XJJ\	.
.	8qg#/	<
8B#X	16f#LL\	.
.	16e#\	.
8E#XJ)	16a#\	.
*Xped	*	*
.	16b#XJJ	.
*ped	*	*
(>8AA#L	2cc#)	[
8E#X	.	.
8c#	.	.
8A#J)	.	.
*Xped	*	*
=28	=28	=28
!!linebreak:original
*^	*	*
*ped	*	*	*
8f#L	4D#	8r	.
*Xped	*	*	*
.	.	(>8qbX/	.
*	*	*Xtuplet	*
8A#	.	24bLL	.
.	.	24cc#	.
.	.	24b	.
*ped	*	*	*
8e#X	4G##X 4E#X	24a##X	.
.	.	24bJ	.
*	*	*tuplet	*
.	.	12dd#	.
*Xped	*	*	*
8d#J	.	.	.
.	.	24r	.
.	.	24cc#Jk	.
*ped	*	*	*
2ryy	(>8AA#L	4a#X\)	.
.	8E#	.	.
.	8c#	4r	.
.	8G#XJ) 8En	.	.
*Xped	*	*	*
*v	*v	*	*
=29	=29	=29
*ped	*	*
(8DD#L\	8r	.
8D#\	(<16c##XLL	>
.	16d#JJ	]
.	8qf#/	<
8c#\ 8F##X\	16eLL	.
.	16d#	.
8D#J)\	16g#	.
*Xped	*	*
.	16a#JJ	.
*ped	*	*
(>8GG#L	2b/)	[
8D#	.	.
8B 8G#	.	.
8D#J)	.	.
*Xped	*	*
=30	=30	=30
*^	*	*
*ped	*	*	*
(8eL	4C#	16r	.
.	.	(16a#	pp
*	*	*Xtuplet	*
8G#	.	24a#LL\	.
.	.	24b\	.
.	.	24a#\	.
*ped	*	*	*
8d#	4F##X 4D#	24g##X\	.
.	.	24a#J\	.
*	*	*tuplet	*
.	.	12.cc#	.
*Xped	*	*	*
8c#J)	.	.	.
.	.	24bJk	.
*ped	*	*	*
2ryy	(>8GG#L	4g#yX\)	.
.	8D#	.	.
.	8B 8G#	[4dd#^	.
.	8D#J)	.	.
*Xped	*	*	*
=31	=31	=31	=31
*	*^	*^	*
4ryy	8DD#'L	8ryy	4ryy	4dd#]\ 4f##X\	.
.	(>8D#	4ryy	.	.	.
4c##X	8c##X	.	(2.ee	4ee 4g#	>
.	8D#J	4ryy	.	.	.
4c#X	8c#XL	.	.	4a# 4f##	.
.	8D#	4ryy	.	.	.
4B	8B	.	.	4b 4g#	]
.	8D#J)	8ryy	.	.	.
=32	=32	=32	=32	=32	=32
!!linebreak:original
.	.	.	8qdd#/	.	>
2ryy	(>8A#L	8ryy	4cc#	2f##X	.
.	8D#	2D#/	.	.	.
.	8d#	.	8bL	.	.
.	8c#J	.	8a#J	.	]
>4B	8BL	.	4g#	4d#	.
.	8D#	4D#/	.	.	.
4c##X	8c##X	.	4a#X	4e#X	.
.	8D#J	8ryy	.	.	.
=33	=33	=33	=33	=33	=33
4d#	8d#L	8ryy	4f##X\)	4ryy	.
.	8D#	4D#/	.	.	.
4c##X	8c##X	.	2.ee	(>4ee 4g#	>
.	8D#J	4D#/	.	.	.
4c#X	8c#XL	.	.	4a# 4f##	.
.	8D#	4D#/	.	.	.
4B	8B	.	.	4b 4g#	]
!	!	!LO:N:vis=4	!	!	!
.	8D#J	8D#/	.	.	.
=34	=34	=34	=34	=34	=34
.	.	.	8qdd#/	.	.
2ryy	8A#L	8ryy	4cc#	2f##X	>
.	8D#	2D#/	.	.	.
.	8d#	.	8bL	.	.
.	8c#J	.	8a#J	.	]
4B	8BL	.	4g#	4d#	.
.	8D#	4D#/	.	.	.
4c##X	8c##X	.	4a#X	4e#X	.
.	8D#J)	8ryy	.	.	.
*v	*v	*v	*	*	*
*	*v	*v	*
=35	=35	=35
*ped	*	*
(>8DD#L	4f##X	.
8F##X	.	.
8A#	4dd#	.
8d#J)	.	.
*Xped	*	*
!	!LO:TX:b:t=stretto.	!
*ped	*	*
(>8EEL	4cc#	.
8E	.	.
8G#	8.g#)	.
16c#Jk)	.	.
*Xped	*	*
16r;	16r;	.
=36	=36	=36
!!pagebreak:original
*ped	*	*
8GGGnL	8r	.
8E	16r	p
!	!LO:TX:b:t=poco	!
.	(>16b	.
*	*Xtuplet	*
8B	20bLL	.
.	20cc#	.
.	20b	.
8eJ	.	.
*Xped	*	*
.	20a#X	.
.	20bJJ	.
*	*tuplet	*
*ped	*	*
!	!LO:TX:b:t=ritenuto.	!
(8FFF#L	8dd#	.
8F#	4dd#	.
8A#	.	.
8eJ)	8cc#)	.
*Xped	*	*
=37	=37	=37
*	*^	*
*ped	*	*	*
(>8BBB#XL\	(>2ff#/	2.ryy	f
8BB#X\	.	.	.
8G#\	.	.	.
8d#J)\	.	.	.
*Xped	*	*	*
*ped	*	*	*
(>8CC#L	2ee#X)	.	.
8C#	.	.	.
8B	.	(>4g#	.
8e#XJ)	.	.	.
*Xped	*	*	*
=38	=38	=38	=38
*ped	*	*	*
(>8FF#L	4r	2.a#)	.
8F#	.	.	.
8A#	(4een	.	.
8eJ)	.	.	.
*Xped	*	*	*
*ped	*	*	*
(>8BBL	4dd#	.	.
8F#	.	.	.
8B	4b	4b)	.
8d#J)	.	.	.
*Xped	*	*	*
*	*v	*v	*
=39	=39	=39
!!linebreak:original
*ped	*	*
!Xtuplet	!	!
!LO:TX:t=Oznaczenie grupy nie chce sie usunac	!	!
(>10EEL	4g#'	.
!LO:TX:a:t=5	!	!
10E	.	.
!LO:TX:a:t=5	!	!
10G#	.	.
.	4.bb	.
10d#	.	.
10c#J	.	.
!tuplet	!	!
4g#>\)	.	.
.	(<16aa#LL/	.
.	16gg#JJ/	.
4r	16eeLL/	.
.	16dd#/	.
.	16cc#/	.
.	16bJJ)/	.
=40	=40	=40
*	*^	*
*ped	*	*	*
4FFF#	1a#t	(>2g#	.
!	!	!LO:TX:a:t=przednutka nie chce się schować za półnutę	!
!	!	!LO:N:vis=2	!
.	.	(>16qg#/LL	.
.	.	16qa#/JJ	.
2.F#	.	.	.
*Xped	*	*	*
.	.	4d#< 4f#<	.
!LO:TX:t=luk wyswietla sie w zlym miejscu	!	!	!
.	.	4c#< 4e<)	.
.	.	8qg#/L	.
.	.	8qa#/J	.
.	.	8qdd#/L	.
.	.	8qcc#/	.
.	.	8qb/J	.
*	*v	*v	*
=41	=41	=41
!	!LO:TX:t=in Tempo.	!
*ped	*	*
8BBBL	4b)	.
(8F#	.	.
8f# 8d#	(>4ff#	.
8F#J	.	.
8eL 8c#	4ee	.
8F#	.	.
8d# 8B	4dd#)	.
8F#J)	.	.
=42	=42	=42
*ped	*	*
(>8FF#L\	(2cc#	.
8C#\	.	.
8A#\ 8F#\	.	.
8C#J\	.	.
8AA#L\	8dd#L	>
8C#\	8cc#	.
8c#\ 8F#\	8b	.
8C#J)\	8a#J	]
*Xped	*	*
=43	=43	=43
!!linebreak:original
*	*^	*
*ped	*	*	*
8CC#'L\	4b	8f#L	>
(>8C#\	.	8e#X	.
.	8qe#/	.	.
8B\ 8E#X\	4b	8d#	.
8C#J)\	.	8c#J	]
*Xped	*	*	*
(>8FF#L\	4b 4g#	2ryy	.
*ped	*	*	*
8C#\	.	.	.
8A#\ 8F#\	4a# 4f#)	.	.
8C#J)\	.	.	.
*Xped	*	*	*
*	*v	*v	*
=44	=44	=44
*ped	*	*
(>8FF#L\	8r	.
8C#\	(>8cc#ML 8a#\	<
8A#\ 8F#\	8b#X 8g##X\	.
8C#J)\	8cc#J 8a#\	.
(>8FF#L\	8ff#'L) 8a#	[
8C#\	16r	.
.	16cc#Jk >16a#	.
8c#\	(12cc#L\ 12a#\	>
.	12b# 12g#X	.
8C#J)\	.	.
*Xped	*	*
.	12a#J 12f#)	.
=45	=45	=45
*^	*	*
*	*	*Xtuplet	*
*ped	*	*	*
2ryy	(>8CC#L\	12bL/ 12f#)/	]
.	.	24r	.
.	8C#\	24bk/ 24fnX/	.
.	.	12b'J/ (<12e/	.
.	8B\ 8E#X\	12b'L 12d#	.
.	.	12b' 12dn	.
.	8C#J)\	.	.
*Xped	*	*	*
.	.	12b'J 12c#)	.
*	*	*tuplet	*
*ped	*	*	*
8ryy	(>8FF#L	4b 4g#	.
4C#	8C#	.	.
.	8A#	4a# 4f	.
8ryy	8C##XJ)	.	.
*Xped	*	*	*
*v	*v	*	*
=46	=46	=46
*ped	*	*
(>8DD#L\	4r	.
8AA#	.	.
8A#\ 8F#\ 8D#\	8r	.
8AA#J)\	(>8a# 8f#	.
(>8DD#L\	8bL 8g#	>
8AA#\	8a# 8f#	.
8A#\	8g# 8e#X	.
8AA#J)\	8f#J 8d#	]
*Xped	*	*
=47	=47	=47
!!linebreak:original
*	*^	*
*ped	*	*	*
(>8AAA#L\	4e#X 4g#	8d#L	>
8AA#\	.	8c##X	.
8E#X\	4g#	8d# 8B	.
8G#J)\	.	8c##J 8A#	]
*Xped	*	*	*
*ped	*	*	*
(>8DD#L\	4g# 4e#	2A#	.
8AA#\	.	.	.
8F#\	4f# 4d#)	.	.
8D#J)\	.	.	.
*Xped	*	*	*
*	*v	*v	*
=48	=48	=48
*ped	*	*
(>8GG##XL	8r	.
8D#	(16d##XLL\	.
.	16e#XJJ\	.
.	8qg#/	<
8B#X	16f#LL\	.
.	16e#\	.
8E#XJ)	16a#\	.
*Xped	*	*
.	16b#XJJ\	.
*ped	*	*
(>8AA#L	2cc#)	[
8E#X	.	.
8c#	.	.
8A#J)	.	.
*Xped	*	*
=49	=49	=49
*^	*	*
*ped	*	*	*
8f#L	4D#	8r	.
.	.	(>8qb#X/	.
*	*	*Xtuplet	*
8A#	.	24b#LL	.
.	.	24cc#	.
.	.	24b#	.
*ped	*	*	*
8e#X	4G##X 4E#X	24a##X	.
.	.	24b#J	.
*	*	*tuplet	*
.	.	12dd#	.
*Xped	*	*	*
8d##J	.	.	.
.	.	24r	.
.	.	24cc#Jk	.
*ped	*	*	*
2ryy	(>8AA#L	4a#X\)	.
.	8E#	.	.
.	8c#	4r	.
.	8G#XJ) 8En	.	.
*Xped	*	*	*
*v	*v	*	*
=50	=50	=50
!!linebreak:original
*ped	*	*
(>8DD#L\	8r	.
8D#\	(16c##XLL\	.
.	16d#JJ\	.
.	8qf#/	<
8c#\ 8F##X\	16eLL\	.
.	16d#\	.
8D#J)\	16g#\	.
*Xped	*	*
.	16a#JJ\	.
*ped	*	*
>8GG#L	2b)	[
8D#	.	.
8B 8G#	.	.
8D#J	.	.
*Xped	*	*
=51	=51	=51
*^	*	*
*ped	*	*	*
(8eL	4C#	16r	.
.	.	(16a#\	.
*	*	*Xtuplet	*
8G#	.	24a#LL\	.
.	.	24b\	.
.	.	24a#\	.
*ped	*	*	*
8d#	4F##X 4D#	24g##X	.
.	.	24a#J\	.
*	*	*tuplet	*
.	.	12.cc#\	.
*Xped	*	*	*
8c#J)	.	.	.
.	.	24bJk\	.
*ped	*	*	*
2ryy	(>8GG#L	4g#yX\)	.
.	8D#	.	.
.	8B 8G#	[4dd#^	.
.	8D#J)	.	.
*Xped	*	*	*
=52	=52	=52	=52
*	*^	*^	*
*ped	*	*	*	*	*
4ryy	8DD#'L	8ryy	4ryy	(4dd#] 4f##X\	.
.	8D#	4D#/	.	.	.
4c##X	8c##X	.	2.ee	4ee 4g#	>
.	8D#J	4D#/	.	.	.
4c#X	8c#XL	.	.	4a# 4f##	.
.	8D#	4D#/	.	.	.
4B	8B	.	.	4b 4g#	]
.	8D#J	8ryy	.	.	.
=53	=53	=53	=53	=53	=53
!!pagebreak:original
.	.	.	8qdd#/	.	>
2ryy	(>8A#L	8ryy	4cc#	2f##\	.
.	8D#	2D#/	.	.	.
.	8d#	.	8bL	.	.
.	8c#J	.	8a#J	.	]
4B	8BL	.	4g#	4d#	.
.	8D#	4ryy	.	.	.
4c##X	8c##X	.	4a#X	4e#X	.
.	8D#J	8ryy	.	.	.
=54	=54	=54	=54	=54	=54
4d#	8d#L	8ryy	4f##X)	4ryy	.
.	8D#	4D#/	.	.	.
4c##X	8c##X	.	(2.ee	4ee 4g#	>
.	8D#J	4D#/	.	.	.
4c#X	8c#XL	.	.	4a# 4f##	.
.	8D#	4D#/	.	.	.
4B	8B	.	.	4b 4g#	]
!	!	!LO:N:vis=4	!	!	!
.	8D#J	8D#/	.	.	.
=55	=55	=55	=55	=55	=55
.	.	.	8qdd#/	.	>
2ryy	8A#L	8ryy	4cc#	2f##X	.
.	8D#	2D#/	.	.	.
.	8d#	.	8bL	.	.
.	8c#J	.	8a#J	.	]
4B	8BL	.	4g#	4d#	.
.	8D#	4D#/	.	.	.
4c##X	8c##X	.	4a#X	4e#X	.
.	8D#J)	8ryy	.	.	.
*v	*v	*v	*	*	*
*	*v	*v	*
=56	=56	=56
*ped	*	*
(>8DD#L	4f##X	.
8F##X	.	.
8A#	4dd#	.
8d#J)	.	.
*Xped	*	*
!	!LO:TX:t=stretto.	!
*ped	*	*
(8EEL	4cc#	f
8E	.	.
8G#	8.g#)	.
16c#Jk)	.	.
*Xped	*	*
16r;	16r;	.
=57	=57	=57
!!linebreak:original
*ped	*	*
8GGGnL	8r	.
(8E	16r	.
!	!LO:TX:t=Ped.	!
.	(>16b	p
*	*Xtuplet	*
8B	20bLL	.
.	20cc#	.
.	20b	.
8eJ)	.	.
*Xped	*	*
.	20a#X	.
.	20bJJ	.
*	*tuplet	*
!	!LO:TX:t=ritenuto.	!
*ped	*	*
8FFF#L	8dd#	.
(>8F#	4dd#	.
8A#	.	.
8eJ)	8cc#)	.
*Xped	*	*
=58	=58	=58
*	*^	*
*ped	*	*	*
(>8BBB#XL\	(>2ff#/	2.ryy	f
8BB#X\	.	.	.
8G#\	.	.	.
8d#J)\	.	.	.
*Xped	*	*	*
*ped	*	*	*
(>8CC#L	2ee#X)	.	.
8C#	.	.	.
8B	.	(4g#/	.
8e#XJ)	.	.	.
*Xped	*	*	*
=59	=59	=59	=59
*ped	*	*	*
(>8FF#L	4r	2.a#)	.
8F#	.	.	.
8A#	(4een	.	.
8eJ)	.	.	.
*Xped	*	*	*
*ped	*	*	*
(>8BBL	4dd#	.	.
8F#	.	.	.
8B	4b	4b	.
8d#J)	.	.	.
*Xped	*	*	*
*	*v	*v	*
=60	=60	=60
!!linebreak:original
*Xtuplet	*	*
*ped	*	*
(>10EEL	4g#')	.
10E	.	.
10G#	.	.
.	(2bb^	.
10d#	.	.
10c#J	.	.
*tuplet	*	*
4g#>\)	.	.
.	(8qbb\L)	.
*Xped	*	*
.	8qaa#\	.
.	8qgg#\	.
.	8qee\	.
.	8qdd#\	.
.	8qccc#\	.
4r;	4ryy	.
.	8qbb\	.
.	8qaa#\	.
.	8qgg#\	.
.	8qee\	.
.	8qdd#\	.
.	8qcc#\	.
.	8qb\J)	.
=61	=61	=61
*	*^	*
!	!LO:TX:a:t=ritenuto.	!	!
.	16qg#/LL	.	.
.	16qa#/JJ	.	.
*ped	*	*	*
4FFF#	1a#t	(>2g#	.
2F#	.	.	.
.	.	4f#< 4d#<	.
*Xped	*	*	*
4ryy	.	4e< 4c#<)	.
.	.	8qg#/L	.
.	.	8qa#/	.
.	.	8qdd#/	.
.	.	8qcc#/	.
.	.	8qb/J	.
*	*v	*v	*
=62	=62	=62
.	(<4qqBn/	pp
.	(<4qqd#/	.
.	(<4qqg#/	.
*^	*	*
*ped	*	*	*
8FFnL	1FFFn	(1b) (1g#) (1d#) (1B)	.
8FFJ	.	.	.
12FFL	.	.	.
12FF	.	.	.
12FFJ	.	.	.
8FFL	.	.	.
8FFJ	.	.	.
12FFL	.	.	.
12FF	.	.	.
(<12FFJ	.	.	.
*v	*v	*	*
=63	=63	=63
!!linebreak:original
*^	*^	*
2.FFn	2.FFFnX)	2.bn;) 2.g 2.dn) 2.Bn)	2.ryy	.
4r	4ryy	16r	4ryy	.
.	.	(32BLLL	.	f<
.	.	32c#nJJJ	.	.
.	.	32eLLL	.	.
.	.	32dn	.	.
.	.	32c#	.	.
.	.	32BJJJ)	.	.
4r	4ryy	2g	4r	[
*ped	*	*	*	*
4FF\ 4BB\ 4Dn\ 4Fn\	4ryy	.	4Gn 4B 4d	.
*Xped	*	*	*	*
4r;	4ryy	4r;	4ryy	.
*v	*v	*v	*	*
=-	=-	=-
*	*^	*
4r	16r	4ryy	.
.	(32BLLL	.	<
.	32c#JJJ	.	.
.	32eLLL	.	.
.	32dny	.	.
.	32c#	.	.
.	32BJJJ)	.	[
4r	2b	4r	<
*ped	*	*	*
4FF#y\ 4BB\ 4D#y\ 4F#y\ 4G#y\	.	4B\ 4d\ 4g#y\	fz
*Xped	*	*	*
4r;	4r;	4ryy	.
*	*v	*v	*
=-	=-	=-
8BL	(8bL	p
8c#	8cc#	.
8e	8ee	.
8dn	8ddn	.
8c#	8cc#	.
8B	8b	.
8A#X	8a#X	.
8B	8b	.
8A#	8a#	.
8G##X	8g##X	.
8A#	8a#X	.
8c#	8cc#	.
8.B	8.b	.
16GnJk	16gnJk)	.
!!linebreak:original
4Gn	(>4gn	.
=-	=-	=-
8qFF#\L	8qF#</L	.
8qBB\	8qB</	.
8qDn\	8qdn/	.
8qF#\	8qf#/	.
8qAny\J	8qan/J	.
*^	*^	*
8GL	4ryy	8gL/	4ryyy	.
16r	.	16r	.	.
16F#Jk	.	16f#J/	.	.
8r	2F#/	2f#^	8r	.
8FF#'\ 8D#X\	.	.	8B' 8d#X	fz
4FF#'\ 4Dn\	.	.	4B' 4dn)	fz
2r	2ryy	2r	2ryy	.
*v	*v	*	*	*
*	*v	*v	*
=-	=-	=-
*^	*	*
*	*^	*	*
4ryy	[2C#/	4r	([2c#	.
!	!	!	!	!LO:DY:b
4F# 4G#X 4B	.	4FF#\	.	p
4E#X 4G# 4B	12C#L]	4FF#\	12c#L]	.
.	12C#/	.	12c#	.
.	12C#J/	.	12c#J	.
2ryy	12C#L/	2ryy	12c#L	.
.	12C#/	.	12c#	.
.	12C#J/	.	12c#J)	.
.	4C#/	.	(4c#	.
*v	*v	*v	*	*
=-	=-	=-
*^	*	*
*	*^	*	*
2Dny	4r	4r	2.dn)	.
.	4Eny/ 4Gn/ (>4A#X/	4FF#'\	.	.
4ryy	4Eny/ 4G/ 4A#/)	4FF#'\	.	.
4ryy	4r	4ryy	4r	.
(4A#	4AA#	4ryy	4ryy	.
*v	*v	*v	*	*
=69	=69	=69
!	!LO:TX:a:t=Adagio.	!
!	!	!LO:DY:b
4qqAA#\	.	f
4qqA#/	.	.
[1BB [1B	1ryy	.
(>4qqE/ 4qqG/	.	.
(>4qqEE'\	.	.
=70	=70	=70
4qqDn/ 4qqF#)	.	.
4qqBBB'\)	.	.
!	!LO:TX:a:t=Fin.	!
1BB;] 1B;])	1ryy	.
==	==	==
*-	*-	*-
!!!system-decoration: {(s1,s2)}
!!title: @{OTL}; @{OPS} @{ONM} publisher: @{OCL}
!!!RDF**kern: > = above
!!!RDF**kern: < = below
!!!ENC: Emilia Ziętek
!!!END:2018-06-05
!!!EED:Jędrzej Mróz
!!!EST:2018-06-06
